X: 15726
T: Golden Stud, The
R: reel
M: 4/4
K: Eminor
|:E3 G FDAF|GG/G/GB ABcA|[Bd]3 [Bd] AGFA|GEF/E/D {F}EDB,D|
EFGE FGAF|GABG ABcA|BdGB AGFA|1 GEE/E/D E2 z2:|2 GEF/E/D {F}EGAB||
|:c2 c/c/c cBAc|B2 B/B/B BAGB|^GAA/A/A A=GFA|GEF/E/D {F}EGAB|
c2 c/c/c cBAc|{A}B2 GB dBGB|AA/A/FG AGFA|1 GEE/E/D EGAB:|2 GEE/E/D {F}EDB,D|

